static/img/kroki/142d80b83fced1fef7d3c64fd6eb9b73.svg

<?xml version="1.0" encoding="us-ascii" standalone="no"?><svg xmlns="http://www.w3.org/2000/svg" xmlns:xlink="http://www.w3.org/1999/xlink" contentStyleType="text/css" height="152px" preserveAspectRatio="none" style="width:636px;height:152px;" version="1.1" viewBox="0 0 636 152" width="636px" zoomAndPan="magnify"><defs/><g><!--class aws_account--><g id="elem_aws_account"><rect codeLine="23" fill="#3D176E" height="39.7891" id="aws_account" rx="2.5" ry="2.5" style="stroke:#000D19;stroke-width:0.5;" width="149" x="186" y="7"/><ellipse cx="201" cy="26.8945" fill="#ADD1B2" rx="11" ry="11" style="stroke:#181818;stroke-width:1.0;"/><path d="M203.9688,32.5352 Q203.3906,32.832 202.75,32.9727 Q202.1094,33.1289 201.4063,33.1289 Q198.9063,33.1289 197.5781,31.4883 Q196.2656,29.832 196.2656,26.707 Q196.2656,23.582 197.5781,21.9258 Q198.9063,20.2695 201.4063,20.2695 Q202.1094,20.2695 202.75,20.4258 Q203.4063,20.582 203.9688,20.8789 L203.9688,23.5977 Q203.3438,23.0195 202.75,22.7539 Q202.1563,22.4727 201.5313,22.4727 Q200.1875,22.4727 199.5,23.5508 Q198.8125,24.6133 198.8125,26.707 Q198.8125,28.8008 199.5,29.8789 Q200.1875,30.9414 201.5313,30.9414 Q202.1563,30.9414 202.75,30.6758 Q203.3438,30.3945 203.9688,29.8164 L203.9688,32.5352 Z " fill="#000000"/><text fill="#D9B8FF" font-family="Helvetica" font-size="17" lengthAdjust="spacing" textLength="107" x="220" y="32.7798">aws_account</text></g><!--class aws_region--><g id="elem_aws_region"><rect codeLine="26" fill="#3D176E" height="39.7891" id="aws_region" rx="2.5" ry="2.5" style="stroke:#000D19;stroke-width:0.5;" width="137" x="7" y="106.79"/><ellipse cx="22" cy="126.6845" fill="#ADD1B2" rx="11" ry="11" style="stroke:#181818;stroke-width:1.0;"/><path d="M24.9688,132.3252 Q24.3906,132.622 23.75,132.7627 Q23.1094,132.9189 22.4063,132.9189 Q19.9063,132.9189 18.5781,131.2783 Q17.2656,129.622 17.2656,126.497 Q17.2656,123.372 18.5781,121.7158 Q19.9063,120.0595 22.4063,120.0595 Q23.1094,120.0595 23.75,120.2158 Q24.4063,120.372 24.9688,120.6689 L24.9688,123.3877 Q24.3438,122.8095 23.75,122.5439 Q23.1563,122.2627 22.5313,122.2627 Q21.1875,122.2627 20.5,123.3408 Q19.8125,124.4033 19.8125,126.497 Q19.8125,128.5908 20.5,129.6689 Q21.1875,130.7314 22.5313,130.7314 Q23.1563,130.7314 23.75,130.4658 Q24.3438,130.1845 24.9688,129.6064 L24.9688,132.3252 Z " fill="#000000"/><text fill="#D9B8FF" font-family="Helvetica" font-size="17" lengthAdjust="spacing" textLength="95" x="41" y="132.5698">aws_region</text></g><!--class aws_root_user--><g id="elem_aws_root_user"><rect codeLine="29" fill="#3D176E" height="39.7891" id="aws_root_user" rx="2.5" ry="2.5" style="stroke:#000D19;stroke-width:0.5;" width="163" x="179" y="106.79"/><ellipse cx="194" cy="126.6845" fill="#ADD1B2" rx="11" ry="11" style="stroke:#181818;stroke-width:1.0;"/><path d="M196.9688,132.3252 Q196.3906,132.622 195.75,132.7627 Q195.1094,132.9189 194.4063,132.9189 Q191.9063,132.9189 190.5781,131.2783 Q189.2656,129.622 189.2656,126.497 Q189.2656,123.372 190.5781,121.7158 Q191.9063,120.0595 194.4063,120.0595 Q195.1094,120.0595 195.75,120.2158 Q196.4063,120.372 196.9688,120.6689 L196.9688,123.3877 Q196.3438,122.8095 195.75,122.5439 Q195.1563,122.2627 194.5313,122.2627 Q193.1875,122.2627 192.5,123.3408 Q191.8125,124.4033 191.8125,126.497 Q191.8125,128.5908 192.5,129.6689 Q193.1875,130.7314 194.5313,130.7314 Q195.1563,130.7314 195.75,130.4658 Q196.3438,130.1845 196.9688,129.6064 L196.9688,132.3252 Z " fill="#000000"/><text fill="#D9B8FF" font-family="Helvetica" font-size="17" lengthAdjust="spacing" textLength="121" x="213" y="132.5698">aws_root_user</text></g><!--class aws_s3_account_settings--><g id="elem_aws_s3_account_settings"><rect codeLine="32" fill="#3D176E" height="39.7891" id="aws_s3_account_settings" rx="2.5" ry="2.5" style="stroke:#000D19;stroke-width:0.5;" width="252" x="377.5" y="106.79"/><ellipse cx="392.5" cy="126.6845" fill="#ADD1B2" rx="11" ry="11" style="stroke:#181818;stroke-width:1.0;"/><path d="M395.4688,132.3252 Q394.8906,132.622 394.25,132.7627 Q393.6094,132.9189 392.9063,132.9189 Q390.4063,132.9189 389.0781,131.2783 Q387.7656,129.622 387.7656,126.497 Q387.7656,123.372 389.0781,121.7158 Q390.4063,120.0595 392.9063,120.0595 Q393.6094,120.0595 394.25,120.2158 Q394.9063,120.372 395.4688,120.6689 L395.4688,123.3877 Q394.8438,122.8095 394.25,122.5439 Q393.6563,122.2627 393.0313,122.2627 Q391.6875,122.2627 391,123.3408 Q390.3125,124.4033 390.3125,126.497 Q390.3125,128.5908 391,129.6689 Q391.6875,130.7314 393.0313,130.7314 Q393.6563,130.7314 394.25,130.4658 Q394.8438,130.1845 395.4688,129.6064 L395.4688,132.3252 Z " fill="#000000"/><text fill="#D9B8FF" font-family="Helvetica" font-size="17" lengthAdjust="spacing" textLength="210" x="411.5" y="132.5698">aws_s3_account_settings</text></g><!--link aws_account to aws_region--><g id="link_aws_account_aws_region"><path codeLine="35" d="M223.95,47.22 C191.52,64.36 149.684,86.465 117.274,103.605 " fill="none" id="aws_account-to-aws_region" style="stroke:#1A83AF;stroke-width:2.0;"/><polygon fill="#1A83AF" points="111.97,106.41,121.7959,105.7385,116.39,104.0725,118.0559,98.6665,111.97,106.41" style="stroke:#1A83AF;stroke-width:2.0;"/></g><!--link aws_account to aws_root_user--><g id="link_aws_account_aws_root_user"><path codeLine="36" d="M260.5,47.22 C260.5,64.36 260.5,83.27 260.5,100.41 " fill="none" id="aws_account-to-aws_root_user" style="stroke:#1A83AF;stroke-width:2.0;"/><polygon fill="#1A83AF" points="260.5,106.41,264.5,97.41,260.5,101.41,256.5,97.41,260.5,106.41" style="stroke:#1A83AF;stroke-width:2.0;"/></g><!--link aws_account to aws_s3_account_settings--><g id="link_aws_account_aws_s3_account_settings"><path codeLine="37" d="M308.51,47.22 C351.11,64.36 407.4542,87.029 450.0242,104.169 " fill="none" id="aws_account-to-aws_s3_account_settings" style="stroke:#1A83AF;stroke-width:2.0;"/><polygon fill="#1A83AF" points="455.59,106.41,448.7353,99.338,450.9518,104.5425,445.7473,106.7591,455.59,106.41" style="stroke:#1A83AF;stroke-width:2.0;"/></g><!--SRC=[XP11Qy9048Nl-HKBdWNJqAgNGXIalKYflPKInkniN4nsPMQisDB_tbXhsIPghkzzp7jlLbQZmceZUrLXjKJYYDVMRO2WKYcHtqrzwKdrZ06J39lcp3lf1EPGeNh0yXt5vj0aNbOsNpjaLZU1DO5yNP3VEdqyBmIEQmkT1DIq1EPKXEnoAnYKqUFbo9WcsJpQItGylCCMvaaZ_IA3mK37uoRI6NLrzn-ni1-eul1fSo_OgjcA-A6kjZmGGSdMq9D_iUCJQ6rTeMu3xVdOYHpIFtsn0krt1zf0oM4C2n9wsMzmsbg5uv4smxFmuoKuoW-lKx3Z3FAyzaLzHj5N81CMrhkMwhraMwvxDmnEJeSoHf5w0n-HCAB_selJKPBEtlhtGKW7SugyZfqf47q3]--></g></svg>

<svg xmlns="http://www.w3.org/2000/svg" width="636" height="152" viewBox="0 0 636 152"><rect width="149" height="39.789" x="186" y="7" fill="#3D176E" rx="2.5" ry="2.5" style="stroke:#000d19;stroke-width:.5"/><circle cx="201" cy="26.895" r="11" fill="#ADD1B2" style="stroke:#181818;stroke-width:1"/><path d="M203.969 32.535q-.578.297-1.219.438-.64.156-1.344.156-2.5 0-3.828-1.64-1.312-1.657-1.312-4.782t1.312-4.781q1.328-1.656 3.828-1.656.703 0 1.344.156.656.156 1.219.453v2.719q-.625-.578-1.219-.844-.594-.281-1.219-.281-1.344 0-2.031 1.078-.687 1.062-.687 3.156t.687 3.172q.688 1.062 2.031 1.062.625 0 1.219-.265.594-.281 1.219-.86z"/><text x="220" y="32.78" fill="#D9B8FF" font-family="Helvetica" font-size="17" textLength="107">aws_account</text><rect width="137" height="39.789" x="7" y="106.79" fill="#3D176E" rx="2.5" ry="2.5" style="stroke:#000d19;stroke-width:.5"/><circle cx="22" cy="126.684" r="11" fill="#ADD1B2" style="stroke:#181818;stroke-width:1"/><path d="M24.969 132.325q-.578.297-1.219.438-.64.156-1.344.156-2.5 0-3.828-1.64-1.312-1.657-1.312-4.782t1.312-4.781q1.328-1.656 3.828-1.656.703 0 1.344.156.656.156 1.219.453v2.719q-.625-.579-1.219-.844-.594-.281-1.219-.281-1.343 0-2.031 1.078-.687 1.062-.687 3.156t.687 3.172q.688 1.062 2.031 1.062.625 0 1.219-.265.594-.281 1.219-.86z"/><text x="41" y="132.57" fill="#D9B8FF" font-family="Helvetica" font-size="17" textLength="95">aws_region</text><rect width="163" height="39.789" x="179" y="106.79" fill="#3D176E" rx="2.5" ry="2.5" style="stroke:#000d19;stroke-width:.5"/><circle cx="194" cy="126.684" r="11" fill="#ADD1B2" style="stroke:#181818;stroke-width:1"/><path d="M196.969 132.325q-.578.297-1.219.438-.64.156-1.344.156-2.5 0-3.828-1.64-1.312-1.657-1.312-4.782t1.312-4.781q1.328-1.656 3.828-1.656.703 0 1.344.156.656.156 1.219.453v2.719q-.625-.579-1.219-.844-.594-.281-1.219-.281-1.344 0-2.031 1.078-.687 1.062-.687 3.156t.687 3.172q.688 1.062 2.031 1.062.625 0 1.219-.265.594-.281 1.219-.86z"/><text x="213" y="132.57" fill="#D9B8FF" font-family="Helvetica" font-size="17" textLength="121">aws_root_user</text><rect width="252" height="39.789" x="377.5" y="106.79" fill="#3D176E" rx="2.5" ry="2.5" style="stroke:#000d19;stroke-width:.5"/><circle cx="392.5" cy="126.684" r="11" fill="#ADD1B2" style="stroke:#181818;stroke-width:1"/><path d="M395.469 132.325q-.578.297-1.219.438-.64.156-1.344.156-2.5 0-3.828-1.64-1.312-1.657-1.312-4.782t1.312-4.781q1.328-1.656 3.828-1.656.703 0 1.344.156.656.156 1.219.453v2.719q-.625-.579-1.219-.844-.594-.281-1.219-.281-1.344 0-2.031 1.078-.687 1.062-.687 3.156t.687 3.172q.688 1.062 2.031 1.062.625 0 1.219-.265.594-.281 1.219-.86z"/><text x="411.5" y="132.57" fill="#D9B8FF" font-family="Helvetica" font-size="17" textLength="210">aws_s3_account_settings</text><path fill="none" d="M223.95 47.22c-32.43 17.14-74.266 39.245-106.676 56.385" style="stroke:#1a83af;stroke-width:2"/><path fill="#1A83AF" d="m111.97 106.41 9.826-.671-5.406-1.666 1.666-5.406z" style="stroke:#1a83af;stroke-width:2"/><path fill="none" d="M260.5 47.22v53.19" style="stroke:#1a83af;stroke-width:2"/><path fill="#1A83AF" d="m260.5 106.41 4-9-4 4-4-4z" style="stroke:#1a83af;stroke-width:2"/><path fill="none" d="M308.51 47.22c42.6 17.14 98.944 39.809 141.514 56.949" style="stroke:#1a83af;stroke-width:2"/><path fill="#1A83AF" d="m455.59 106.41-6.855-7.072 2.217 5.205-5.205 2.216z" style="stroke:#1a83af;stroke-width:2"/></svg>
